X:1768
T:Alternativ 3:e repris
R:Polska
S:Efter Johan August Andersson
O:Dorotea, Lappland
Z: Per Oldberg 2013-02, efter: http://www.youtube.com/watch?v=kR97T__Cbs0
M:3/4
K:G
|:=B | d>g bb/g/ a>f | gd Bd/B/ G2 | BB/c/ d/e/d/B/ c/A/F/A/ | GB/G/ D/C/B,/D/ G,2 | 
G,/C/E/C/ G,/B,/D/B,/ G,/A,/C/A,/ | G,G,/B,/ DF G2 | ED/E/ AA/B/ c/e/d/c/ | B/A/G/F/ G2- G :|
  
(:musicend:)
(:music:)
